images/district0x.svg

<svg height="250" viewBox="0 0 250 250" width="250" xmlns="http://www.w3.org/2000/svg"><path d="m10.117188 185.148438c-25.410157-60.757813-.074219-121.910157 50.90625-165.605469 65.140624-55.816407 154.617187 21.96875 176.980468 58.511719 24.277344 39.664062 12.460938 123.824218-46.601562 156.582031-59.066406 32.761719-155.683594 11.628906-181.285156-49.488281zm0 0" fill="#fff"/><path d="m26.621094 176.789062c-21.597656-51.78125-.0625-103.910156 43.386718-141.144531 55.519532-47.578125 131.773438 18.714844 150.832032 49.859375 20.695312 33.804688 10.621094 105.597656-39.703125 133.464844-50.324219 27.863281-132.714844 9.898438-154.515625-42.179688zm0 0" fill="#2c398f"/><path d="m136.085938 59.585938c.152343 3.332031-5.351563 1.914062-11.332032 4.007812-6.660156 2.34375-11.511718.308594-11.652344-3.019531-.140624-3.328125 4.421876-10.886719 10.761719-11.160157 6.339844-.269531 12.054688 6.84375 12.222657 10.171876zm0 0" fill="#04ffcc"/><path d="m228.828125 106.550781c-4.140625-2.921875-8.394531-4.710937-11.433594-4.933593-8.105469-.429688-14.179687 10.183593-10.046875 25.976562 3.71875 14.179688-.992187 26.433594 7.113282 26.867188 3.542968.195312 9.097656-1.886719 14.28125-5.511719 2.828124-13.996094 2.859374-28.390625.085937-42.398438zm0 0" fill="#04ffcc"/><path d="m152.664062 27.988281c-3.195312 2.558594-5.058593 6.359375-5.082031 10.378907v52.265624c-23.113281-13.066406-52.582031-7.96875-69.617187 12.046876-17.039063 20.015624-16.632813 49.0625.957031 68.621093 17.589844 19.558594 47.1875 23.882813 69.929687 10.210938 2.738282 5.796875 9.269532 8.960937 15.691407 7.597656 6.417969-1.359375 10.996093-6.878906 10.988281-13.257813v-135.03125c-7.210938-4.929687-14.867188-9.222656-22.867188-12.832031zm-9.894531 116.078125c-3.050781 16.597656-19.058593 19.542969-32.375 12.144532-28.941406-16.039063-4.574219-57.417969 24.417969-41.375 8.566406 4.757812 9.695312 19.761718 7.957031 29.230468zm0 0" fill="#7bf6f8"/><path d="m111.019531 231.136719c-2.886719-10.085938-12.707031-21.441407-29.972656-30.097657-26.070313-13.078124-38.480469-35.566406-49.546875-24.65625-1.273438 1.277344-2.3125 2.757813-3.074219 4.375 14.253907 28.839844 47.578125 46.347657 82.59375 50.378907zm0 0" fill="#04ffcc"/></svg>

<svg xmlns="http://www.w3.org/2000/svg" xmlns:xlink="http://www.w3.org/1999/xlink" width="250px" height="250px" viewBox="0 0 250 250" version="1.1">
<g id="surface1">
<path style=" stroke:none;fill-rule:nonzero;fill:rgb(100%,100%,100%);fill-opacity:1;" d="M 10.117188 185.148438 C -15.292969 124.390625 10.042969 63.238281 61.023438 19.542969 C 126.164062 -36.273438 215.640625 41.511719 238.003906 78.054688 C 262.28125 117.71875 250.464844 201.878906 191.402344 234.636719 C 132.335938 267.398438 35.71875 246.265625 10.117188 185.148438 Z M 10.117188 185.148438 "/>
<path style=" stroke:none;fill-rule:nonzero;fill:rgb(17.254902%,22.352941%,56.078434%);fill-opacity:1;" d="M 26.621094 176.789062 C 5.023438 125.007812 26.558594 72.878906 70.007812 35.644531 C 125.527344 -11.933594 201.78125 54.359375 220.839844 85.503906 C 241.535156 119.308594 231.460938 191.101562 181.136719 218.96875 C 130.8125 246.832031 48.421875 228.867188 26.621094 176.789062 Z M 26.621094 176.789062 "/>
<path style=" stroke:none;fill-rule:nonzero;fill:rgb(1.568628%,100%,80.000001%);fill-opacity:1;" d="M 136.085938 59.585938 C 136.238281 62.917969 130.734375 61.5 124.753906 63.59375 C 118.09375 65.9375 113.242188 63.902344 113.101562 60.574219 C 112.960938 57.246094 117.523438 49.6875 123.863281 49.414062 C 130.203125 49.144531 135.917969 56.257812 136.085938 59.585938 Z M 136.085938 59.585938 "/>
<path style=" stroke:none;fill-rule:nonzero;fill:rgb(1.568628%,100%,80.000001%);fill-opacity:1;" d="M 228.828125 106.550781 C 224.6875 103.628906 220.433594 101.839844 217.394531 101.617188 C 209.289062 101.1875 203.214844 111.800781 207.347656 127.59375 C 211.066406 141.773438 206.355469 154.027344 214.460938 154.460938 C 218.003906 154.65625 223.558594 152.574219 228.742188 148.949219 C 231.570312 134.953125 231.601562 120.558594 228.828125 106.550781 Z M 228.828125 106.550781 "/>
<path style=" stroke:none;fill-rule:nonzero;fill:rgb(48.235294%,96.470588%,97.254902%);fill-opacity:1;" d="M 152.664062 27.988281 C 149.46875 30.546875 147.605469 34.347656 147.582031 38.367188 L 147.582031 90.632812 C 124.46875 77.566406 95 82.664062 77.964844 102.679688 C 60.925781 122.695312 61.332031 151.742188 78.921875 171.300781 C 96.511719 190.859375 126.109375 195.183594 148.851562 181.511719 C 151.589844 187.308594 158.121094 190.472656 164.542969 189.109375 C 170.960938 187.75 175.539062 182.230469 175.53125 175.851562 L 175.53125 40.820312 C 168.320312 35.890625 160.664062 31.597656 152.664062 27.988281 Z M 142.769531 144.066406 C 139.71875 160.664062 123.710938 163.609375 110.394531 156.210938 C 81.453125 140.171875 105.820312 98.792969 134.8125 114.835938 C 143.378906 119.59375 144.507812 134.597656 142.769531 144.066406 Z M 142.769531 144.066406 "/>
<path style=" stroke:none;fill-rule:nonzero;fill:rgb(1.568628%,100%,80.000001%);fill-opacity:1;" d="M 111.019531 231.136719 C 108.132812 221.050781 98.3125 209.695312 81.046875 201.039062 C 54.976562 187.960938 42.566406 165.472656 31.5 176.382812 C 30.226562 177.660156 29.1875 179.140625 28.425781 180.757812 C 42.679688 209.597656 76.003906 227.105469 111.019531 231.136719 Z M 111.019531 231.136719 "/>
</g>
</svg>
